raw/symbols/amzn.svg

<svg width="36" height="36" viewBox="0 0 36 36" fill="none" xmlns="http://www.w3.org/2000/svg">
<rect width="36" height="36" rx="18" fill="#E4B060"/>
<path d="M26.7798 26.3267C24.4 28.0807 20.9507 29.0166 17.9809 29.0166C13.8167 29.0166 10.0679 27.4764 7.2318 24.9148C7.00897 24.7134 7.20862 24.4389 7.47601 24.5958C10.5367 26.3766 14.3212 27.4479 18.2304 27.4479C20.8669 27.4479 23.7672 26.9024 26.434 25.7705C26.8368 25.5994 27.1738 26.0343 26.7798 26.3267Z" fill="#030303"/>
<path d="M27.7651 25.195C27.462 24.8064 25.7543 25.0114 24.9878 25.1023C24.7543 25.1308 24.7186 24.9276 24.929 24.7814C26.2891 23.8242 28.5209 24.1005 28.7812 24.4214C29.0414 24.744 28.7134 26.9812 27.4353 28.049C27.2392 28.2129 27.052 28.1256 27.1394 27.9081C27.4264 27.1915 28.0699 25.5854 27.7651 25.195Z" fill="#030303"/>
<path d="M19.5619 17.3259V16.7769C17.7294 16.7769 15.7935 17.1691 15.7935 19.3296C15.7935 20.4241 16.3603 21.1656 17.3336 21.1656C18.0467 21.1656 18.6848 20.7271 19.0877 20.0141C19.5868 19.137 19.5619 18.3135 19.5619 17.3259ZM22.1181 23.5044C21.9506 23.6542 21.7081 23.6649 21.5192 23.565C20.6778 22.8662 20.528 22.5418 20.0646 21.8751C18.6741 23.2941 17.6901 23.7183 15.8861 23.7183C13.7542 23.7183 12.0928 22.4028 12.0928 19.7681C12.0928 17.711 13.2087 16.3098 14.7952 15.6253C16.1714 15.0192 18.093 14.9123 19.5619 14.7447V14.4167C19.5619 13.8142 19.6082 13.1012 19.2553 12.5806C18.9451 12.1136 18.3533 11.9211 17.8327 11.9211C16.8666 11.9211 16.0038 12.4166 15.7935 13.4434C15.7507 13.6716 15.5831 13.8962 15.3549 13.9069L12.8949 13.6431C12.6882 13.5967 12.46 13.4292 12.517 13.1119C13.0839 10.1313 15.7756 9.23291 18.1857 9.23291C19.4193 9.23291 21.0307 9.56091 22.004 10.495C23.2376 11.6466 23.1199 13.1832 23.1199 14.8552V18.8055C23.1199 19.9927 23.6119 20.5132 24.0754 21.155C24.2394 21.3831 24.2751 21.6576 24.0683 21.8288C23.5513 22.2602 22.6315 23.0623 22.1253 23.5116L22.1181 23.5044Z" fill="#030303"/>
</svg>

<svg xmlns="http://www.w3.org/2000/svg" width="36" height="36" fill="none"><rect width="36" height="36" fill="#E4B060" rx="18"/><path fill="#030303" d="M26.78 26.327c-2.38 1.754-5.83 2.69-8.8 2.69-4.163 0-7.912-1.54-10.748-4.102-.223-.202-.023-.476.244-.32 3.06 1.782 6.845 2.853 10.754 2.853 2.637 0 5.537-.546 8.204-1.678.403-.17.74.264.346.557Z"/><path fill="#030303" d="M27.765 25.195c-.303-.389-2.01-.184-2.777-.093-.234.029-.27-.174-.059-.32 1.36-.958 3.592-.681 3.852-.36.26.322-.068 2.56-1.346 3.627-.196.164-.383.077-.296-.14.287-.717.93-2.324.626-2.714ZM19.562 17.326v-.55c-1.833 0-3.769.393-3.769 2.554 0 1.094.567 1.836 1.54 1.836.714 0 1.352-.439 1.755-1.152.499-.877.474-1.7.474-2.688Zm2.556 6.178a.529.529 0 0 1-.599.061c-.841-.699-.991-1.023-1.454-1.69-1.39 1.42-2.375 1.843-4.179 1.843-2.132 0-3.793-1.315-3.793-3.95 0-2.057 1.116-3.458 2.702-4.143 1.376-.606 3.298-.713 4.767-.88v-.328c0-.603.046-1.316-.307-1.836-.31-.467-.902-.66-1.422-.66-.966 0-1.83.496-2.04 1.522-.042.229-.21.453-.438.464l-2.46-.264c-.207-.046-.435-.214-.378-.531.567-2.98 3.259-3.88 5.669-3.88 1.233 0 2.845.329 3.818 1.263 1.234 1.152 1.116 2.688 1.116 4.36v3.95c0 1.188.492 1.708.955 2.35.164.228.2.503-.007.674-.517.431-1.437 1.233-1.943 1.683l-.007-.008Z"/></svg>
